!!!!SEGMENT: pl-kk--kk-i-1--013-003_borek-krzysztof--missa-te-deum-laudamus-patrem.krn
!!!cenid: 15xx:698
!!!COM: Borek, Krzysztof
!!!COM-rismid: pe30020454
!!!CDT:
!!!CNT:
!!!OPR: [Missa] Te Deum laudamus
!!!OTL: Patrem
!!!OMV: 003
!!!PDT:
!!!AGN: Sacred; Mass
!!!SMS-siglum: PL-Kk
!!!SMS-shelfmark: Kk.I.1
!!!SMS-shelfwork: 013-003 M
!!!SMS-variant:
!!!SMS-altvar:
!!!NIFC-rismid: 300257967
!!!URL-scan: http://repozytorium.nifc.pl/skany/pl-kk-nut--i-1
!!!ONB-nifc: UWAGA: Cantus (s. 75r-81v, skan 0077-0084), Altus (s. 73r-78v, skan 0265-0271), Tenor (s. 71r-76r, skan 0460-0465), Bassus (s. 70v-76r, skan 0632-0637). Części Mszy: 1. Kyrie, 2. Et in terra, 3. Patrem, 4. Sanctus, 5. Agnus Dei
**kern	**text	**kern	**text	**kern	**text	**kern	**text
*part4	*part4	*part3	*part3	*part2	*part2	*part1	*part1
*staff4	*staff4	*staff3	*staff3	*staff2	*staff2	*staff1	*staff1
*Iempty	*	*Itenor	*	*Iempty	*	*Iempty	*
*I"BASSVS	*	*I"TENOR	*	*I"ALTVS	*	*I"CANTVS	*
*I'B	*	*I'T	*	*I'A	*	*I'C	*
*ICvox	*	*ICvox	*	*ICvox	*	*ICvox	*
*stria6	*	*stria6	*	*stria6	*	*stria6	*
*clefF4	*	*clefC4	*	*clefC3	*	*clefC3	*
*k[]	*	*k[]	*	*k[]	*	*k[]	*
*a:	*	*a:	*	*a:	*	*a:	*
*M2/1	*	*M2/1	*	*M2/1	*	*M2/1	*
*met(C|)	*	*met(C|)	*	*met(C|)	*	*met(C|)	*
=1-	=1-	=1-	=1-	=1-	=1-	=1-	=1-
!LO:SIC:v:ot=sześciolinia	!	!LO:SIC:v:ot=sześciolinia	!	!LO:SIC:v:ot=sześciolinia	!	!LO:SIC:v:ot=sześciolinia	!
00r	.	00r	.	1r	.	1B/	PA-
.	.	.	.	1B/	Pa-	1d\	-tre(m)
=2-	=2-	=2-	=2-	=2-	=2-	=2-	=2-
.	.	.	.	2c/	-tre(m)	1e\	om-
.	.	.	.	1B/	om-	.	.
.	.	.	.	.	.	2e\	-ni-
.	.	.	.	2B/	-ni-	1e\	-po-
=3-	=3-	=3-	=3-	=3-	=3-	=3-	=3-
1AA/	Pa-	00r	.	2.c/	-po-	.	.
.	.	.	.	.	.	2f\	-ten-
.	.	.	.	4B/	.	.	.
1C/	-trem	.	.	4c\	.	2e\	-tem
.	.	.	.	4d\	.	.	.
.	.	.	.	2e\	-ten-	2g\	.
=4-	=4-	=4-	=4-	=4-	=4-	=4-	=4-
1D\	om-	.	.	2A/	-te(m)	2f\	.
*	*	*	*	*	*ij	*	*
.	.	.	.	2d\	om-	2f\	.
2D/	-ni-	.	.	2d\	-ni-	2f\	.
2.D/	-po-	.	.	1f\	-po-	2d\	.
=5-	=5-	=5-	=5-	=5-	=5-	=5-	=5-
.	.	1r	.	.	.	2r	.
4E\	.	.	.	.	.	.	.
2F\	-te(n)-	.	.	2d\	-ten-	1d\	fac-
*	*	*lig	*	*	*	*	*
1E\	-tem	1G/	PA-	1e\	-te(m)/	.	.
*	*	*	*	*	*Xij	*	*
!	!	!	!	!	!	!LO:SIC:v:t=custos d	!
.	.	.	.	.	.	2c/	-to-
!	!	!	!	!	!	!LO:PB:g=original	!
=6-	=6-	=6-	=6-	=6-	=6-	=6-	=6-
2D/	.	1A\	.	1r	.	2d\	-rem
2D/	fac-	.	.	.	.	2f\	c(ae)-
*	*	*Xlig	*	*	*	*	*
2C/	-to-	1A\	-tre(m)	2r	.	2e\	-li
2D/	-re(m)	.	.	2d\	fac-	1f\	e(t)
=7-	=7-	=7-	=7-	=7-	=7-	=7-	=7-
1F\	c(ae)-	1A\	i(m)-	2c/	-to-	.	.
!	!	!	!	!LO:SIC:v:t=custos e	!	!	!
.	.	.	.	2d\	-rem	2f\	t(er)-
!	!	!	!	!LO:PB:g=original	!	!	!
2.E\	-li	1B\	-men-	1.e\	c(ae)-	1g\	-r(ae)
!LO:SIC:v:t=custos C	!	!	!	!	!	!	!
4D/	.	.	.	.	.	.	.
!LO:LB:g=original	!	!	!	!	!	!	!
=8-	=8-	=8-	=8-	=8-	=8-	=8-	=8-
2C/	et	1A\	-ſ(ae)	.	.	2r	.
2D/	t(er)-	.	.	4d\	.	2a\	vi-
.	.	.	.	4c\	.	.	.
1E\	-r(ae)	1G/	ma-	2B/	-li	2e\	-ſi-
.	.	.	.	2c/	e(t)	1g\	-bi-
=9-	=9-	=9-	=9-	=9-	=9-	=9-	=9-
*	*	*lig	*	*	*	*	*
2r	.	1A\	-ie-	1d\	t(er)-	.	.
2A\	vi-	.	.	.	.	2f\	-li-
2E\	-ſi-	1B\	.	2e\	-r(ae)	2g\	-u(m)
1G\	-bi-	.	.	2d\	vi-	2g\	om-
*	*	*Xlig	*	*	*	*	*
=10-	=10-	=10-	=10-	=10-	=10-	=10-	=10-
*	*	*lig	*	*	*	*	*
.	.	1c\	-ſta-	2e\	-ſi-	1a\	-ni-
2F\	-li-	.	.	2f\	-bi-	.	.
1G\	-um	1B\	.	2e\	-li-	2g\	-(um)
.	.	.	.	1d\	-um	4d\	.
.	.	.	.	.	.	4e\	.
*	*	*Xlig	*	*	*	*	*
=11-	=11-	=11-	=11-	=11-	=11-	=11-	=11-
!	!	!LO:SIC:v:t=custos G	!	!	!	!	!
2D/	om-	0A\	.	.	.	2f\	.
2C/	-ni-	.	.	2e\	om-	1g\	.
1D\	-(um)	.	.	1d\	-ni-	.	.
.	.	.	.	.	.	2f\	.
!	!	!LO:LB:g=original	!	!	!	!	!
=12-	=12-	=12-	=12-	=12-	=12-	=12-	=12-
2r	.	0G/	-tis	2B/	-(um)	2g\	.
2C/	e(t)	.	.	1c\	e(t)	1e\	e(t)
2C/	in-	.	.	.	.	.	.
!	!	!	!	!	!	!LO:SIC:v:t=custos f	!
2G\	-ui-	.	.	2B/	in-	2d\	in-
!	!	!	!	!	!	!LO:LB:g=original	!
=13-	=13-	=13-	=13-	=13-	=13-	=13-	=13-
2.F\	-ſi-	0c\	Ve-	2.A/	-vi-	2.f\	-vi-
4F\	-bi-	.	.	4A/	-ſi-	4f\	-ſi-
2F\	-li-	.	.	2A/	-bi-	2f\	-bi-
2C/	-um	.	.	2G/	-li-	2e\	-li-
=14-	=14-	=14-	=14-	=14-	=14-	=14-	=14-
2r	.	1c\	-ne-	1A/	-um	2c/	-u(m)
!LO:SIC:v:t=custos F	!	!	!	!	!	!	!
2F\	e(t)	.	.	.	.	1f\	Et
!LO:PB:g=original	!	!	!	!	!	!	!
2F\	in	1c\	-ran-	1r	.	.	.
2C/	v-	.	.	.	.	2e\	in
=15-	=15-	=15-	=15-	=15-	=15-	=15-	=15-
2F\	-nu(m)	1c\	-(dum)	1r	.	1f\	v-
1A\	d(o-	.	.	.	.	.	.
.	.	1B\	tu-	2r	.	2d\	-nu(m)
!	!	!	!	!LO:SIC:v:t=custos c	!	!	!
2G\	-mi)-	.	.	2B/	Do-	1e\	d(o-
!	!	!	!	!LO:LB:g=original	!	!	!
=16-	=16-	=16-	=16-	=16-	=16-	=16-	=16-
2A\	-n(u)m	1A\	-u(m)	2c/	-mi-	.	.
2F\	n(os-	.	.	2A/	-nu(m)	2d\	-mi)-
1E\	-t)r(u)m	1B\	Ve-	1e\	n(os-	2e\	-n(u)m
.	.	.	.	.	.	2B/	n(os-
=17-	=17-	=17-	=17-	=17-	=17-	=17-	=17-
2r	.	1A\	-ru(m)	2e\	-t)r(u)m	2c/	-t)r(u)m
2D/	Ie-	.	.	1d\	Je-	2d\	Je-
1AA/	-ſu(m)	1A\	e(t)	.	.	1e\	-ſu(m)
.	.	.	.	2c/	-ſu(m)	.	.
=18-	=18-	=18-	=18-	=18-	=18-	=18-	=18-
1D\	Chr(i-	1A\	v-	1d\	Chr(i-	1f\	Chr(i-
1GG/	-stu)m	1G/	-ni-	2B/	-stu)m	2d\	-stu)m
.	.	.	.	2B/	fi-	2d\	fi-
=19-	=19-	=19-	=19-	=19-	=19-	=19-	=19-
*	*	*lig	*	*	*	*	*
2r	.	1A\	-cu(m)	2c/	 li-	2e\	 li-
!	!	!	!	!	!	!LO:SIC:v:t=custos d	!
2D/	fi-	.	.	2.d\	-um	2f\	-um
!	!	!	!	!	!	!LO:LB:g=original	!
2BB/	-li-	1B\	.	.	.	2d\	De-
.	.	.	.	4c/	.	.	.
2GG/	-um	.	.	4B/	.	2d\	-i
.	.	.	.	4A/	.	.	.
*	*	*Xlig	*	*	*	*	*
=20-	=20-	=20-	=20-	=20-	=20-	=20-	=20-
*	*	*lig	*	*	*	*	*
2C/	de-	1c\	fi-	2G/	De-	2e\	v-
2AA/	-i	.	.	2A/	-i	2e\	-ni-
2BB/	V-	1B\	.	2r	.	2.d\	-ge-
2GG/	-ni-	.	.	2B/	v-	.	.
.	.	.	.	.	.	4d\	-ni-
*	*	*Xlig	*	*	*	*	*
=21-	=21-	=21-	=21-	=21-	=21-	=21-	=21-
1D\	-ge-	0A\	-li-	2d\	-ni-	1d\	-tu(m)
.	.	.	.	2A/	-ge-	.	.
!LO:SIC:v:t=custos GG	!	!	!	!	!	!	!
1D\	-ni-	.	.	1d\	-ni-	2r	.
.	.	.	.	.	.	1d\	Et
!LO:LB:g=original	!	!	!	!	!	!	!
=22-	=22-	=22-	=22-	=22-	=22-	=22-	=22-
1GG/	-tum	1G/	-um	2B/	-tu(m)	.	.
.	.	.	.	2B/	e(t)	2d\	ex
1r	.	2r	.	2c/	ex	2e\	p(at)-
!	!	!	!	!LO:SIC:v:t=custos d	!	!	!
.	.	1A\	Et	2d\	pa-	2.f\	-re
!	!	!	!	!LO:LB:g=original	!	!	!
=23-	=23-	=23-	=23-	=23-	=23-	=23-	=23-
2.D/	e(t)	.	.	2.d\	-tre	.	.
.	.	.	.	.	.	4e\	.
!	!	!LO:SIC:v:t=custos B	!	!	!	!	!
.	.	2A/	ex	.	.	1d\	na-
4D/	ex	.	.	4c/	.	.	.
!	!	!LO:LB:g=original	!	!	!	!	!
2G\	p(at)-	2B\	p(at)-	4B/	.	.	.
.	.	.	.	4A/	.	.	.
2C/	-re	2c\	-re	1G/	na-	2e\	-tu(m)
=24-	=24-	=24-	=24-	=24-	=24-	=24-	=24-
1D\	na-	1A\	na-	.	.	2r	.
!	!	!	!	!LO:TX:t=P:problem=# below	!	!	!
.	.	.	.	2F#X/	.	2d\	an
2GG/	-tu(m)	2G/	-tu(m)	2G/	-tu(m)	2g\	.
2G\	an-	2G/	an-	2B/	an	2g\	om-
=25-	=25-	=25-	=25-	=25-	=25-	=25-	=25-
2D/	-te	2A/	-(te)	2d\	.	2f\	-ni-
!	!	!	!	!	!	!LO:SIC:v:t=custos e	!
2G\	om-	2B\	o(m-	2d\	o(m-	2d\	-a
!	!	!	!	!	!	!LO:LB:g=original	!
2C/	-ni-	2c\	-n)i-	2c/	-n)i-	2.e\	ſe-
2C/	-a	2c\	-a	1e\	-a	.	.
.	.	.	.	.	.	4d\	.
=26-	=26-	=26-	=26-	=26-	=26-	=26-	=26-
1E\	ſe-	2B\	ſe-	.	.	4e\	.
.	.	.	.	.	.	4f\	.
.	.	4A/	.	2c/	.	1g\	.
.	.	4G/	.	.	.	.	.
1D\	-c(u)-	2A/	.	2d\	ſe-	.	.
.	.	2A/	-cu-	2d\	-cu-	2f\	-cu-
=27-	=27-	=27-	=27-	=27-	=27-	=27-	=27-
!	!	!LO:SIC:v:t=custos E	!	!LO:SIC:v:t=custos c	!	!	!
0GG/;	-la	0G/;	-la	0B/;	-la.	0gl\;	-la.
!LO:LB:g=original	!	!LO:PB:g=original	!	!LO:LB:g=original	!	!	!
=28-	=28-	=28-	=28-	=28-	=28-	=28-	=28-
1AA/	De-	2.E/	De-	1c\	De-	1e\	De-
.	.	4F/	.	.	.	.	.
2E\	-um	2G/	-um	2B/	-um	1e\	-um
2AA/	de	1A\	de	2A/	de	.	.
=29-	=29-	=29-	=29-	=29-	=29-	=29-	=29-
1E\	de-	.	.	1B/	De-	2e\	de
.	.	2G/	De-	.	.	2.e\	De-
1AA/	-o	2A/	-o	1c\	-o	.	.
.	.	.	.	.	.	4d\	.
.	.	2A/	lu-	.	.	4c/	.
.	.	.	.	.	.	4B/	.
=30-	=30-	=30-	=30-	=30-	=30-	=30-	=30-
2r	.	1c\	-me(n)	0r	.	2A/	-o
2AA/	lu-	.	.	.	.	2A/	lu-
2BB/	-me(n)	2B\	de	.	.	2d\	-men
!	!	!	!	!	!	!LO:SIC:v:t=custos f	!
2C/	de	1A\	lu-	.	.	2c/	de
!	!	!	!	!	!	!LO:PB:g=original	!
=31-	=31-	=31-	=31-	=31-	=31-	=31-	=31-
2D/	lu-	.	.	2r	.	2f\	lu-
2E\	-mi-	2G/	-mi-	1e\	De-	4e\	.
.	.	.	.	.	.	4d\	.
1AA/	-ne	2A/	-ne	.	.	2.c/	-mi-
.	.	1A\	De-	2e\	-um	.	.
.	.	.	.	.	.	4B/	.
=32-	=32-	=32-	=32-	=32-	=32-	=32-	=32-
2r	.	.	.	2.e\	ve-	2A/	-ne
2AA/	De	2A/	-um	.	.	1e\	De-
.	.	.	.	4d\	.	.	.
2AA/	u(m)	1A\	ve-	4c/	.	.	.
.	.	.	.	4B/	.	.	.
2AA/	ve-	.	.	2c/	-ru(m)	2e\	-u(m)
=33-	=33-	=33-	=33-	=33-	=33-	=33-	=33-
2.E\	-ru(m)	2G/	-ru(m)	2B/	de	2e\	Ve-
.	.	2G/	de	2B/	De-	2B/	-ru(m)
4D/	de	.	.	.	.	.	.
2C/	De-	2A/	De-	2A/	-o	2c/	de
!	!	!LO:SIC:v:t=custos c	!	!	!	!	!
2BB/	-o	2B\	-o	1G/	.	2d\	De-
!	!	!LO:LB:g=original	!	!	!	!	!
=34-	=34-	=34-	=34-	=34-	=34-	=34-	=34-
1AA/	ve-	1c\	ve-	.	.	2e\	-o
.	.	.	.	2Fny/	ve-	2f\	ve-
!LO:SIC:v:t=custos C	!	!	!	!	!	!	!
0GG/	-ro	1B\	-ro	1G/	-ro	2d\	-ro
.	.	.	.	.	.	1d\	ge-
=35-	=35-	=35-	=35-	=35-	=35-	=35-	=35-
.	.	2r	.	1B/	ge-	.	.
.	.	1G/	ge-	.	.	2d\	-ni-
0r	.	.	.	2B/	-ni-	2e\	-tu(m)
.	.	2G/	-ni-	1B/	-tu(m)	2.d\	non
=36-	=36-	=36-	=36-	=36-	=36-	=36-	=36-
.	.	2G/	-tu(m)	.	.	.	.
.	.	.	.	.	.	4c/	.
!	!	!	!	!LO:SIC:v:t=custos d	!	!	!
.	.	2A/	no(n)	2c/	non.	1c\	.
!	!	!	!	!LO:PB:g=original	!	!	!
1r	.	1G/	f(a)c-	1d\	f(a)c-	.	.
!	!	!	!	!	!	!LO:SIC:v:t=custos c	!
.	.	.	.	.	.	2B/	fa-
!LO:LB:g=original	!	!	!	!	!	!LO:LB:g=original	!
=37-	=37-	=37-	=37-	=37-	=37-	=37-	=37-
1C/	Con-	2E/	-t(u)m	2e\	-t(u)m	2c/	-ctu(m)
.	.	1G/	Co(n)-	2c/	Con-	1e\	Co(n)-
2C/	-ſub-	.	.	1c\	-ſub-	.	.
1C/	-ſtan-	2G/	-ſub-	.	.	2e\	-ſub-
=38-	=38-	=38-	=38-	=38-	=38-	=38-	=38-
.	.	2G/	-ſta(n)-	2c/	-ſta(n)-	2e\	-ſta(n)-
2E\	-ti-	2G/	-ti-	2c/	-ti-	2e\	-ti-
2D/	-a-	2A/	-a-	2d\	-a-	2f\	-a-
2GG/	.	2G/	-lem	2d\	-le(m)	1g\	-lem
=39-	=39-	=39-	=39-	=39-	=39-	=39-	=39-
1D\	-lem	1A\	p(at)-	1d\	p(at)-	.	.
.	.	.	.	.	.	2f\	pa-
2.E\	pa-	2G/	-ri	1B/	-ri	2.g\	-tri
.	.	1E/	per	.	.	.	.
4D/	.	.	.	.	.	4f\	.
=40-	=40-	=40-	=40-	=40-	=40-	=40-	=40-
4C/	-tri	.	.	2r	.	4e\	.
4BB/	.	.	.	.	.	4d\	.
2AA/	.	2E/	que(m)	1A/	per	2c/	.
1r	.	2F/	om-	.	.	2d\	per
!	!	!LO:SIC:v:t=custos G	!	!	!	!	!
.	.	2F/	-ni-	2A/	que(m)	2d\	que(m)
!	!	!LO:LB:g=original	!	!	!	!	!
=41-	=41-	=41-	=41-	=41-	=41-	=41-	=41-
2r	.	2G/	-a	2B/	om-	1e\	om-
1AA/	per	1A\	fa-	1c\	-ni-	.	.
.	.	.	.	.	.	2e\	-ni-
2D/	quem	4G/	.	2d\	-a	2.f\	-a
.	.	4F/	.	.	.	.	.
=42-	=42-	=42-	=42-	=42-	=42-	=42-	=42-
2E\	.	2G/	-cta	2B/	fac-	.	.
.	.	.	.	.	.	4e\	f(ac)-
2AA/	om-	2A/	.	2c/	.	1e\	-ta
1D\	-ni-	1F/	ſunt.	1A/	-ta	.	.
.	.	.	.	.	.	2d/	.
=43-	=43-	=43-	=43-	=43-	=43-	=43-	=43-
!	!	!	!	!	!	!LO:SIC:v:t=custos e	!
2.C/	-a	00E/;	.	1.c\	ſunt	00el\;	sunt.
4BB/	fa-	.	.	.	.	.	.
2AA/	.	.	.	.	.	.	.
2GG/	-cta	.	.	2B/	.	.	.
=44-	=44-	=44-	=44-	=44-	=44-	=44-	=44-
1AA/	ſunt	.	.	1A/	.	.	.
!	!	!	!	!LO:SIC:v:t=custos B	!	!	!
!LO:SIC:v:t=custos E	!	!	!	!LO:TX:t=P:problem=# below	!	!	!
1E\;	.	.	.	1G#X/;	.	.	.
!LO:PB:g=original	!	!	!	!LO:LB:g=original	!	!LO:LB:g=original	!
=45-	=45-	=45-	=45-	=45-	=45-	=45-	=45-
*M3/1	*	*M3/1	*	*M3/1	*	*M3/1	*
0E\	Qui	0E/	Qui	0B/	Qui	0e\	Qui
1E\	p(ro)p-	1G/	p(ro)p-	1B/,	p(ro)p-	1e\,	prop-
=46-	=46-	=46-	=46-	=46-	=46-	=46-	=46-
0AA/	-t(er)	0A\	-t(er)	0c\	-t(er)	0e\	-t(er)
1D\	nos	1A\	nos	1d\,	nos	1f\,	nos
=47-	=47-	=47-	=47-	=47-	=47-	=47-	=47-
1C/	ho-	1.A\	ho-	1A/	ho-	1e\	ho-
*col	*	*	*	*col	*	*col	*
0BB/	-mi-	.	.	0B/,	-mi-	0d\,	-mi-
.	.	4G/	.	.	.	.	.
.	.	4F/	.	.	.	.	.
!	!	!LO:SIC:v:t=custos A	!	!	!	!	!
.	.	1G/	-mi-	.	.	.	.
*Xcol	*	*	*	*Xcol	*	*Xcol	*
!	!	!LO:LB:g=original	!	!	!	!	!
=48-	=48-	=48-	=48-	=48-	=48-	=48-	=48-
0AA/	-(n)es	0A\	-nes	0.c\,	-nes	0.c\,	-nes
1AA/	e(t)	1A\	e(t)	.	.	.	.
=49-	=49-	=49-	=49-	=49-	=49-	=49-	=49-
2C/	pro-	0G/	p(ro)p-	0e\	e(t)	1g\	e(t)
2D/	.	.	.	.	.	.	.
2E\	.	.	.	.	.	1g\	prop-
2F\	-pt(er)	.	.	.	.	.	.
1G\	.	1B\	-t(er)	1e\,	p(ro)p-	1g\,	-t(er)
=50-	=50-	=50-	=50-	=50-	=50-	=50-	=50-
0C/	n(ost)-	0c\	n(ost)-	0e\	-t(er)	2e\	no-
.	.	.	.	.	.	2f\	.
.	.	.	.	.	.	2g\	.
.	.	.	.	.	.	2e\	.
!	!	!	!	!	!	!LO:SIC:v:t=custos d	!
1D\	-ram	1A\	-ram	1d\,	n(os-	1f\,	-ſtra(m)
!	!	!	!	!	!	!LO:LB:g=original	!
=51-	=51-	=51-	=51-	=51-	=51-	=51-	=51-
1BB/	ſa-	1B\	ſa-	1d\	-t)ram	1d\	ſa-
*col	*	*col	*	*	*	*	*
0E\	-lu-	0G/	-lu-	1B/	ſa-	0e\,	-lu-
.	.	.	.	1B/,	-lu-	.	.
*Xcol	*	*Xcol	*	*	*	*	*
=52-	=52-	=52-	=52-	=52-	=52-	=52-	=52-
*	*	*	*	*col	*	*	*
0AA/	-t(em)	0A\	-tem	0c\	-te(m)	1c\	-te(m)
.	.	.	.	.	.	1e\	de-
*	*	*	*	*Xcol	*	*	*
1D\	de-	1A\	de-	1r,	.	1d\,	-ſce(n)-
=53-	=53-	=53-	=53-	=53-	=53-	=53-	=53-
0C/	-ſcen-	0c\	-ſcen-	0e\	de-	1G/	-dit
*	*	*	*	*	*	*	*ij
.	.	.	.	.	.	1g\	de-
!LO:SIC:v:t=custos AA	!	!	!	!	!	!	!
1GG/	-dit	1B\	-dit	1d\,	-ſcen-	1g\,	-ſce(n)-
!LO:LB:g=original	!	!	!	!	!	!	!
=54-	=54-	=54-	=54-	=54-	=54-	=54-	=54-
1AA/	de	1A\	de	1c\	-(dit)	1e\	-dit
*col	*	*	*	*	*	*	*Xij
0E\	c(ae)-	0B\	c(ae)-	1e\	de	1e\	de
.	.	.	.	1B/,	c(ae)-	1e\,	c(ae)-
*Xcol	*	*	*	*	*	*	*
=55-	=55-	=55-	=55-	=55-	=55-	=55-	=55-
!	!	!LO:SIC:v:t=custos A	!	!LO:SIC:v:t=custos c	!	!LO:SIC:v:t=custos e	!
0.AA/;	-lis	0.A\;<	-lis	0.c\;	-liſ.	0.e\;	-lis
!	!	!	!	!LO:LB:g=original	!	!	!
=56-	=56-	=56-	=56-	=56-	=56-	=56-	=56-
*M2/1	*	*M2/1	*	*M2/1	*	*M2/1	*
*met(C|)	*	*met(C|)	*	*met(C|)	*	*met(C|)	*
!	!	!LO:PB:g=original	!	!	!	!LO:PB:g=original	!
0AA/	Et	0A\	Et	0c\	Et	0e\	E(t)
=57-	=57-	=57-	=57-	=57-	=57-	=57-	=57-
1C/	in-	1G/	in-	1c\	in-	1e\	in-
1GG/	-car-	1B\	-car-	1d\	-car-	1g\	-car-
=58-	=58-	=58-	=58-	=58-	=58-	=58-	=58-
1.C/	-na-	1.c\	-na-	1.e\	-na-	1.g\	-na-
2D/	-tus	2A/	-tus	1d\	-tus	2f\	-t(us)
=59-	=59-	=59-	=59-	=59-	=59-	=59-	=59-
1AA/	eſt	1A\	eſt	.	.	1e\	eſt
.	.	.	.	2c/	eſt	.	.
1D\	de	1A\	de	1d\	.	2r	.
.	.	.	.	.	.	2d\	de
=60-	=60-	=60-	=60-	=60-	=60-	=60-	=60-
*	*	*lig	*	*	*	*	*
2C/	ſp(i-	1A\	ſpi-	2r	.	2e\	ſpi-
2D/	-ri-	.	.	2d/	de	2.f\	-ri-
1E\	-t)u	1G/	.	2B/	Sp(i-	.	.
.	.	.	.	.	.	4e\	-tu
.	.	.	.	1c\	-ri-	1e\	.
*	*	*Xlig	*	*	*	*	*
=61-	=61-	=61-	=61-	=61-	=61-	=61-	=61-
1F\	ſanc-	1A\	-ri-	.	.	.	.
.	.	.	.	2A/	-t)u	2d\	ſ(an)-
1E\	-to	1B\	-tu	2r	.	2e\	-cto
*	*	*	*	*	*ij	*	*ij
.	.	.	.	2e\	de	2g\	de
=62-	=62-	=62-	=62-	=62-	=62-	=62-	=62-
2.E\	.	0G/	ſ(an)-	2e\	Sp(i-	1g\	ſpi-
.	.	.	.	2B/	-ri-	.	.
!LO:SIC:v:t=custos C	!	!	!	!	!	!	!
4D/	.	.	.	.	.	.	.
!LO:LB:g=original	!	!	!	!	!	!	!
2C/	.	.	.	2c/	-t)u	2g\	-ri-
*	*	*	*	*	*Xij	*	*
2BB/	.	.	.	1d\	San-	2d\	-tu
=63-	=63-	=63-	=63-	=63-	=63-	=63-	=63-
0AA/;	.	0A\;	-cto	.	.	2r	.
.	.	.	.	4c/	.	2e\	ſ(an)-
.	.	.	.	4B/	.	.	.
!	!	!	!	!LO:SIC:v:t=custos d	!	!LO:SIC:v:t=custos f	!
.	.	.	.	1cl\;	-cto	1e\;	-cto
*	*	*	*	*	*	*	*Xij
!	!	!	!	!LO:LB:g=original	!	!LO:LB:g=original	!
=64-	=64-	=64-	=64-	=64-	=64-	=64-	=64-
0D\	Ex	0A\	Ex	0d\	Ex	0f\	Ex
=65-	=65-	=65-	=65-	=65-	=65-	=65-	=65-
1AA/	Ma-	1A\	Ma-	1e\	Ma-	1c\	Ma-
0D\	-ri-	0A\	-ri-	0f\	-ri-	0d\	-ri-
=66-	=66-	=66-	=66-	=66-	=66-	=66-	=66-
!	!	!LO:SIC:v:t=custos F	!	!	!	!	!
1GG/	-a	1G/	-a	1d\	-a	1B/	-a
!	!	!LO:LB:g=original	!	!	!	!	!
=67-	=67-	=67-	=67-	=67-	=67-	=67-	=67-
1.BB-X/	vir-	1.F/	Vir-	1.B-X/	vir-	1.d\	vir-
2C/	-gi-	2E/	-gi-	2Gny/	-gi-	2c/	-gi-
=68-	=68-	=68-	=68-	=68-	=68-	=68-	=68-
1AA/	-ne	1E/	-ne	1A/	-ne	1c\	-ne
1AA/	e(t)	1E/	e(t)	1c\	e(t)	1e\	e(t)
=69-	=69-	=69-	=69-	=69-	=69-	=69-	=69-
1AA/	ho-	1A\	ho-	1c\	ho-	1e\	ho-
1C/	-mo	1.G/	-(mo)	2c/	.	2.c/	-mo
.	.	.	.	2.e\	-mo	.	.
.	.	.	.	.	.	4B/	.
=70-	=70-	=70-	=70-	=70-	=70-	=70-	=70-
1C/	.	.	.	.	.	4c/	.
.	.	.	.	4d\	.	4d\	.
.	.	2E/	fac-	4c/	.	1e\	fac-
.	.	.	.	4Bny/	fa-	.	.
1D\	fac-	1F/	-tus	1A/	-ctus	.	.
.	.	.	.	.	.	2d\	-tus
=71-	=71-	=71-	=71-	=71-	=71-	=71-	=71-
!	!	!	!	!	!	!LO:SIC:v:t=custos e	!
1.AA/	-tus	00.E/;	eſt.	1.A/	.	00.e\;	eſt
2GG/	.	.	.	2B/	eſt	.	.
=72-	=72-	=72-	=72-	=72-	=72-	=72-	=72-
*	*	*	*	*	*ij	*	*
1AA/	.	.	.	1.c\	fa-	.	.
0.E\;	eſt	.	.	.	.	.	.
.	.	.	.	4B/	-ctus	.	.
.	.	.	.	4A/	.	.	.
!LO:LB:g=original	!	!	!	!	!	!	!
=73-	=73-	=73-	=73-	=73-	=73-	=73-	=73-
!	!	!	!	!LO:SIC:v:t=custos B	!	!	!
.	.	.	.	0B/;	eſt	.	.
*	*	*	*	*	*Xij	*	*
!	!	!	!	!LO:PB:g=original	!	!LO:LB:g=original	!
=74||-	=74||-	=74-	=74-	=74||-	=74||-	=74||-	=74||-
00r	.	0r	.	1.B/	Cru-	0r	.
.	.	.	.	2B/	-ci-	.	.
=75-	=75-	=75-	=75-	=75-	=75-	=75-	=75-
.	.	1.E/	Cru-	2c/	-fi-	1r	.
.	.	.	.	1B/	-xus	.	.
.	.	.	.	.	.	1e\	Cru-
.	.	2E/	-ci-	1e\	e-	.	.
=76-	=76-	=76-	=76-	=76-	=76-	=76-	=76-
00r	.	1F/	-fi-	.	.	2c/	-ci-
.	.	.	.	2d\	-ti-	2d\	.
.	.	2E/	-xus	1.c\	-am	2e\	-fi-
!	!	!LO:SIC:v:t=custos G	!	!	!	!	!
.	.	2A/	e-	.	.	2f\	-xus
!	!	!LO:LB:g=original	!	!	!	!	!
=77-	=77-	=77-L	=77-	=77-	=77-	=77-	=77-
.	.	2G/	-ti-	.	.	2r	.
.	.	2F/	-am	2d\	p(ro)	2a\	e-
.	.	2E/	pro	2e\	no-	2g\	-ti-
.	.	2D/	no-	2A/	-bis	2f\	-a(m)
=78-	=78-	=78-	=78-	=78-	=78-	=78-	=78-
1AA/	Sub	2E/	-bis	2.c/	ſub	2e\	pro
.	.	2E/	Sub	.	.	2e\	no-
.	.	.	.	4d\	.	.	.
2AA/	Pon-	2E/	Pon-	2e\	Pon-	2A/	-bis
2AA/	-ti-	2E/	-ti-	2c/	-ti-	2e\	Sub
=79-	=79-	=79-	=79-	=79-	=79-	=79-	=79-
1.C/	-o	2E/	-o	2.c/	-o	2.e\	Pon-
.	.	2E/	Pi-	.	.	.	.
.	.	.	.	4d\	.	4d\	-ti-
.	.	1G/	-la-	4e\	.	2c/	-o
.	.	.	.	4f\	.	.	.
2GG/	Pi-	.	.	2g\	Pi-	2B/	Pi-
=80-	=80-	=80-	=80-	=80-	=80-	=80-	=80-
2AA/	-la-	2E/	-to	2.c/	-la-	1A/	-la-
2AA/	-to	1A\	paſ-	.	.	.	.
.	.	.	.	4d\	-to	.	.
!	!	!	!	!LO:SIC:v:t=custos B	!	!	!
2r	.	.	.	1e\	.	2E/	-to
2E\	paſ-	2G/	-sus	.	.	1e\	paſ-
!	!	!	!	!LO:LB:g=original	!	!	!
=81-	=81-	=81-	=81-	=81-	=81-	=81-	=81-
2C/	-sus	2.c\	e(t)	0r	.	.	.
1F\	e(t)	.	.	.	.	2c\	-sus
.	.	4B\	ſe-	.	.	.	.
!	!	!	!	!	!	!LO:SIC:v:t=custos e	!
.	.	2A/	-pul-	.	.	1f\	e(t)
2D/	ſe-	2A/	-t(us)	.	.	.	.
!	!	!	!	!	!	!LO:LB:g=original	!
=82-	=82-	=82-	=82-	=82-	=82-	=82-	=82-
2.E\	-pul-	1G/	e(st)	2r	.	2e\	ſe-
.	.	.	.	2B/	e(t)	2.e\	-pul-
4E\	-t(us)	.	.	.	.	.	.
2AA/	eſt	2r	.	2c/	re-	.	.
.	.	.	.	.	.	4d\	-tus
!LO:SIC:v:t=custos E	!	!LO:SIC:v:t=custos G	!	!	!	!	!
2AA/	e(t)	2A/	Et	1e\	-ſur-	2c/	.
!LO:PB:g=original	!	!LO:LB:g=original	!	!	!	!	!
=83-	=83-	=83-	=83-	=83-	=83-	=83-	=83-
2E\	re-	2G/	re-	.	.	2B/	eſt
1A\	-ſur-	2A/	-ſur-	2d\	-re-	2A/	e(t)
.	.	1B\	-re-	2e\	-xit	2e\	re-
2G\	-re-	.	.	2e\	ter-	2g\	-ſur-
=84-	=84-	=84-	=84-	=84-	=84-	=84-	=84-
2A\	-xit	2A/	-xit	2c/	-ci-	1f\	-re-
2F\	ter-	1A\	ter-	2d\	-a	.	.
2D/	-ci-	.	.	2d\	di-	2f\	-xit
2E\	-a	2G/	-ci-	2G/	-e	1e\	ter-
=85-	=85-	=85-	=85-	=85-	=85-	=85-	=85-
1F\	di-	1A\	-a	0r	.	.	.
.	.	.	.	.	.	2d\	-ci-
1E\	-e	1B\	di-	.	.	2e\	-a
.	.	.	.	.	.	2g\	di-
=86-	=86-	=86-	=86-	=86-	=86-	=86-	=86-
2r	.	2A/	-e	2c/	ſe-	2e\	-e
2A\	ſ(e)-	2c\	ſe-	1e\	-c(un)-	2a\	ſe-
2E\	-c(un)-	2B/	-cu(n)-	.	.	2g\	-cun-
2F\	-d(u)m	2A/	-dum	4d/	-d(u)m	2f\	-du(m)
.	.	.	.	4c/	.	.	.
=87-	=87-	=87-	=87-	=87-	=87-	=87-	=87-
2D/	ſcri-	2A/	ſcrip-	2d\	ſcri-	2f\	ſcrip-
!	!	!	!	!	!	!LO:SIC:v:t=custos e	!
2E\	-pt:	2G/	-tu-	2B/	-ptu-	2e/	-tu-
!	!	!	!	!	!	!LO:PB:g=original	!
2AA/	.	1A\	-ras	1c\	-ras	2e\	-ras
2AA/	e(t)	.	.	.	.	2A/	e(t)
=88-	=88-	=88-	=88-	=88-	=88-	=88-	=88-
2BBny/	a-	2r	.	1r	.	2d\	a-
2C/	-ſcen-	1A\	Tu	.	.	2e\	-ſcen-
2D/	-dit	.	.	2r	.	2d\	-dit
2D/	.	2A/	ad	2d\	e(t)	2f\	in
=89-	=89-	=89-	=89-	=89-	=89-	=89-	=89-
!	!	!LO:SIC:v:t=custos A	!	!	!	!	!
2.F\	.	1A\	dex-	2c/	a-	2f\	c(ae)-
.	.	.	.	2f\	-ſce(n)-	2c/	-lu(m)
!LO:SIC:v:t=custos A	!	!	!	!	!	!	!
4G\	.	.	.	.	.	.	.
!LO:LB:g=original	!	!LO:PB:g=original	!	!	!	!	!
2A\	.	2A/	-te-	2e\	-dit	1r	.
!	!	!	!	!LO:SIC:v:t=custos e	!	!	!
2D/	in	2A/	-ram	2f\	in	.	.
!	!	!	!	!LO:LB:g=original	!	!	!
=90-	=90-	=90-	=90-	=90-	=90-	=90-	=90-
2.E\	c(ae)-	1G/	De-	1e\	c(ae)-	2r	.
.	.	.	.	.	.	1g\	Se-
4F\	-lu(m)	.	.	.	.	.	.
1G\	.	1B\	-i	1d\	-lu(m)	.	.
.	.	.	.	.	.	2g\	-det
=91-	=91-	=91-	=91-	=91-	=91-	=91-	=91-
1.C/	ſe-	0c\	ſe-	2r	.	2e\	.
.	.	.	.	1e\	ſe-	2.g\	ad
.	.	.	.	.	.	4f\	.
2C/	-det	.	.	2g\	-det	2e\	dex-
=92-	=92-	=92-	=92-	=92-	=92-	=92-	=92-
2D/	ad	1A\	-des	1f\	ad	2.d\	-te-
1D\	dex-	.	.	.	.	.	.
.	.	.	.	.	.	4e\	.
.	.	1A\	in	2d\	.	4f\	.
.	.	.	.	.	.	4g\	.
2AA/	-te-	.	.	1e\	dex-	2.a\	.
=93-	=93-	=93-	=93-	=93-	=93-	=93-	=93-
*	*	*lig	*	*	*	*	*
2C/	-ra(m)	1A\	glo-	.	.	.	.
.	.	.	.	.	.	4g\	.
2D/	p(at)-	.	.	4d\	-te-	4f\	.
.	.	.	.	4c\	.	4e\	-ra(m)
2GG/	-ris	1G/	.	2B/	-ra(m)	2d\	p(at)-
2C/	e(t)	.	.	1e\	p(at)-	1c\	-ris
*	*	*Xlig	*	*	*	*	*
=94-	=94-	=94-	=94-	=94-	=94-	=94-	=94-
1F\	i-	2.A/	-ri-	.	.	.	.
!	!	!	!	!	!	!LO:SIC:v:t=custos e	!
.	.	.	.	2d\	-ris	2A/	.
.	.	4B\	.	.	.	.	.
!	!	!	!	!	!	!LO:LB:g=original	!
2.E\	-te-	2c\	.	1e\	.	2r	.
.	.	1B\	.	.	.	2e\	Et
4D/	-ru(m)	.	.	.	.	.	.
=95-	=95-	=95-	=95-	=95-	=95-	=95-	=95-
2C/	ven-	.	.	0r	.	2e\	i-
2AA/	-tu-	1A\	-a	.	.	2e\	-te-
1E\	-r(us)	.	.	.	.	2e\	-ru(m)
.	.	2G/	p(at)-	.	.	2e\	ven-
=96-	=96-	=96-	=96-	=96-	=96-	=96-	=96-
2D/	eſt	1A\	-ris	1r	.	2f\	-tu-
2D/	cum	.	.	.	.	2f\	-r(us)
1AA/	glo-	0A\	Iu-	2r	.	1e\	eſt
.	.	.	.	2E/	iu-	.	.
!LO:LB:g=original	!	!	!	!	!	!	!
=97-	=97-	=97-	=97-	=97-	=97-	=97-	=97-
2AA/	-ri-	.	.	2E/	-di-	2e\	cu(m)
2AA/	-a	.	.	2E/	-ca-	2.a\	glo-
2.D/	iu-	1A\	-dex	2F/	-re	.	.
.	.	.	.	.	.	4g\	.
.	.	.	.	1A/	vi-	4f\	-ri-
4C/	-di-	.	.	.	.	4e\	-a
=98-	=98-	=98-	=98-	=98-	=98-	=98-	=98-
*	*	*lig	*	*	*	*	*
1BB/	-ca-	1B\	cre-	.	.	2d\	.
.	.	.	.	2G/	-uos	2d\	iu-
!	!	!LO:SIC:v:t=custos A	!	!	!	!	!
2AA/	-re	1c\	.	2A/	.	2c/	-di-
2AA/	vi-	.	.	1c\	e(t)	2e\	-ca-
*	*	*Xlig	*	*	*	*	*
!	!	!LO:LB:g=original	!	!	!	!	!
=99-	=99-	=99-	=99-	=99-	=99-	=99-	=99-
2C/	-uos	1A\	-de-	.	.	2e\	-re
2D/	e(t)	.	.	4F/	mor-	2d\	vi-
!	!	!	!	!LO:SIC:v:t=custos A	!	!	!
.	.	.	.	4G/	.	.	.
!	!	!	!	!LO:LB:g=original	!	!	!
1AA/	mor-	1A\	-rs	4A/	.	2c/	-uos
.	.	.	.	4B/	.	.	.
.	.	.	.	1c\	.	2e\	et
=100-	=100-	=100-	=100-	=100-	=100-	=100-	=100-
*	*	*lig	*	*	*	*	*
1FF/	-tu-	1A\	eſ-	.	.	2.f\	mor-
.	.	.	.	4B/	-tu-	.	.
!	!	!	!	!	!	!LO:SIC:v:t=custos d	!
.	.	.	.	4A/	-os	4f\	-tu-
!	!	!	!	!	!	!LO:LB:g=original	!
2GG/	-os	1G/	.	2B/	.	2d\	-os
2GG/	cu-	.	.	2B/	cu-	2d\	Cu-
*	*	*Xlig	*	*	*	*	*
=101-	=101-	=101-	=101-	=101-	=101-	=101-	=101-
2D/	-ius	1A\	-se	2A/	-ius	2f\	-ius
2C/	re-	.	.	2c/	re-	2e\	re-
2BB/	-gni	1B\	ven-	2d\	-gni	2g\	-gni
2GG/	non	.	.	2d\	no(n)	2g\	no(n)
=102-	=102-	=102-	=102-	=102-	=102-	=102-	=102-
2C/	e-	0G/	-tu-	2.c/	e-	2e\	e-
1C/	-rit	.	.	.	.	1e\	-rit
.	.	.	.	4d\	-rit	.	.
.	.	.	.	2e\	.	.	.
!LO:SIC:v:t=custos AA	!	!	!	!	!	!	!
2BB/	fi-	.	.	2B/	fi-	2d\	fi-
!LO:LB:g=original	!	!	!	!	!	!	!
=103-	=103-	=103-	=103-	=103-	=103-	=103-	=103-
2AA/	-nis	2A/	-rus	2c/	-nis	2c/	-nis
2r	.	2r	.	2r	.	2r	.
*	*	*lig	*	*	*	*	*
1E\	Et	1G/	S(an)c-	1B/	Et	1e\	Et
=104-	=104-	=104-	=104-	=104-	=104-	=104-	=104-
2AA/	in	1A\	.	2c/	in	2e\	in
1D\	ſp(i-	.	.	2A/	ſp(i-	2d\	ſpi-
*	*	*Xlig	*	*	*	*	*
.	.	1A\	-t(u)m	2A/	-ri-	2f\	-ri-
2C/	-ri-	.	.	2c/	-tu)m	2e\	-tum
=105-	=105-	=105-	=105-	=105-	=105-	=105-	=105-
2D/	-t)um	1B\	quo-	2r	.	2r	.
!	!	!	!	!LO:SIC:v:t=custos c	!	!	!
2E\	ſ(an)c-	.	.	2e\	ſan-	2e\	ſ(an)-
!	!	!	!	!LO:PB:g=original	!	!	!
2AA/	-t(u)m	1A\	-q(ue)	2c/	-ctu(m)	2e\	-ct(u)m
1D\	D(o-	.	.	2.f\	do-	2d\	do-
=106-	=106-	=106-	=106-	=106-	=106-	=106-	=106-
.	.	1A\	Pa-	.	.	2d\	-mi-
.	.	.	.	4e\	.	.	.
!	!	!	!	!	!	!LO:SIC:v:t=custos e	!
2D/	-mi)-	.	.	1d\	.	2A/	-num
!	!	!	!	!	!	!LO:LB:g=original	!
*	*	*lig	*	*	*	*	*
1AA/	-n(u)m	1A\	-ra-	.	.	2r	.
.	.	.	.	2c/	-mi-	2e\	e(t)
=107-	=107-	=107-	=107-	=107-	=107-	=107-	=107-
2r	.	1G/	.	2d\	-nu(m)	1g\	vi-
2E\	et	.	.	2e\	e(t)	.	.
*	*	*Xlig	*	*	*	*	*
2F\	Vi-	1A\	-cle-	2c/	vi-	1f\	-vi-
2D/	-ui-	.	.	4d/	-ui-	.	.
.	.	.	.	4c/	.	.	.
=108-	=108-	=108-	=108-	=108-	=108-	=108-	=108-
2.G\	-fi-	1B\	-tu(m)	4B/	.	1d\	-fi-
.	.	.	.	4A/	.	.	.
.	.	.	.	1d\	-fi-	.	.
4F\	-can-	.	.	.	.	.	.
1E\	-tem	2G/	ſpi-	.	.	1e\	-can-
!	!	!LO:SIC:v:t=custos A	!	!	!	!	!
.	.	2G/	-ri-	2c/	-ca(n)-	.	.
!	!	!LO:LB:g=original	!	!	!	!	!
=109-	=109-	=109-	=109-	=109-	=109-	=109-	=109-
2D/	.	1A\	-tum	1d\	-te(m)	2f\	-te(m)
!LO:SIC:v:t=custos D	!	!	!	!	!	!	!
2D/	qui	.	.	.	.	2f\	qui
!LO:PB:g=original	!	!	!	!	!	!	!
2D/	ex	1r	.	1r	.	2.d\	ex
2G\	p(at)-	.	.	.	.	.	.
.	.	.	.	.	.	4e\	p(at)-
=110-	=110-	=110-	=110-	=110-	=110-	=110-	=110-
2F\	-re	2r	.	2r	.	1f\	-re
1F\	fi-	2A/	Qui	2c/	Qui	.	.
.	.	2A/	ex	2c/	ex	1r	.
4E/	.	2B\	p(at)-	2d\	p(at)-	.	.
4D/	.	.	.	.	.	.	.
=111-	=111-	=111-	=111-	=111-	=111-	=111-	=111-
2.C/	-li-	2c\	-re	2e\	-re	2r	.
.	.	2c\	fi-	2e\	fi-	2g\	fi-
4D/	.	.	.	.	.	.	.
2E\	-o-	2B\	-li-	2e\	-li-	2g\	-li-
2F\	-q(ue)	2A/	-o-	4d\	-o-	4f\	-o-
.	.	.	.	4c\	-q(ue)	4e\	.
=112-	=112-	=112-	=112-	=112-	=112-	=112-	=112-
2G\	pro-	2B\	-q(ue)	2B/	.	2d\	-q(ue)
!	!	!	!	!LO:SIC:v:t=custos d	!	!	!
2C/	-ce-	2c\	pro-	2e\	pro-	1g\	pro-
!	!	!	!	!LO:LB:g=original	!	!	!
1D\	.	1A\	-ce-	1d\	-ce-	.	.
.	.	.	.	.	.	2f\	-ce-
=113-	=113-	=113-	=113-	=113-	=113-	=113-	=113-
0GG/	-dit	1G/	-dit	1d\	-dit	2g\	-dit
.	.	.	.	.	.	1d\	q(ui)
.	.	00r	.	1B/	q(ui)	.	.
!	!	!	!	!	!	!LO:SIC:v:t=custos e	!
.	.	.	.	.	.	2d\	cum
!	!	!	!	!	!	!LO:PB:g=original	!
=114-	=114-	=114-	=114-	=114-	=114-	=114-	=114-
00r	.	.	.	2B/	cu(m)	1e\	p(at)-
.	.	.	.	1c\	p(at)-	.	.
.	.	.	.	.	.	2f\	-re
.	.	.	.	2d\	-re	2g\	e(t)
=115-	=115-	=115-	=115-	=115-	=115-	=115-	=115-
.	.	.	.	2e\	e(t)	1g\	fi-
.	.	.	.	2.d\	.	.	.
.	.	0r	.	.	.	4f\	-li-
.	.	.	.	4c/	fi-	4e\	.
.	.	.	.	1c\	.	4d\	.
.	.	.	.	.	.	4c\	.
=116-	=116-	=116-	=116-	=116-	=116-	=116-	=116-
1r	.	.	.	.	.	1d\	-o
.	.	.	.	2B/	-li-	.	.
1.C/	ſi-	2r	.	2c/	-o	1e\	ſi-
.	.	1c\	Si-	1G/	ſi-	.	.
=117-	=117-	=117-	=117-	=117-	=117-	=117-	=117-
.	.	.	.	.	.	2e\	-mul
2C/	-mul	2c\	-mul	2G/	-mul	1e\	a-
2E\	a-	2B\	a-	2G/	a-	.	.
2F\	-do-	2A/	-do-	1A/	-do-	2d\	-do-
=118-	=118-	=118-	=118-	=118-	=118-	=118-	=118-
1E\	-ra-	1B\	-ra-	.	.	1e\	-ra-
.	.	.	.	2G/	-ra-	.	.
1AA/	-tur	2A/	-tur	2A/	-tur	1e\	-tur
!	!	!LO:SIC:v:t=custos G	!	!	!	!	!
.	.	2A/	e(t)	1c\	e(t)	.	.
!	!	!LO:LB:g=original	!	!	!	!	!
=119-	=119-	=119-	=119-	=119-	=119-	=119-	=119-
2r	.	2G/	con-	.	.	1r	.
1D\	e(t)	2A/	-glo-	2d\	.	.	.
.	.	2B\	-ri-	1e\	co-	2r	.
!LO:SIC:v:t=custos D	!	!	!	!	!	!	!
2C/	con-	2c\	-fi-	.	.	1g\	e(t)
!LO:LB:g=original	!	!	!	!	!	!	!
=120-	=120-	=120-	=120-	=120-	=120-	=120-	=120-
1D\	-glo-	1A\	-ca-	2.d\	-glo-	.	.
.	.	.	.	.	.	2f\	co(n)-
!	!	!	!	!LO:SIC:v:t=custos B	!	!	!
.	.	.	.	4c/	-ri-	.	.
!	!	!	!	!LO:LB:g=original	!	!	!
2E\	-ri-	1G/	-tur	2B/	.	2g\	-glo-
2C/	-fi-	.	.	2c/	-fi-	2e\	-ri-
=121-	=121-	=121-	=121-	=121-	=121-	=121-	=121-
1D\	-ca-	2r	.	1A/	-ca-	2.d\	-fi-
.	.	2A/	qui	.	.	.	.
.	.	.	.	.	.	4d\	-ca-
1GG/	-tur	1B\	lo-	1G/	-tur	2d\	-t(ur)
!	!	!	!	!	!	!LO:SIC:v:t=custos e	!
.	.	.	.	.	.	2d\	qui
!	!	!	!	!	!	!LO:LB:g=original	!
=122-	=122-	=122-	=122-	=122-	=122-	=122-	=122-
1r	.	2c\	-cu-	1r	.	1e\	lo-
.	.	1c\	-tus	.	.	.	.
2r	.	.	.	2r	.	2e\	-quu-
2D/	Qui	2d\	eſt	2A/	qui	2f\	-tus
=123-	=123-	=123-	=123-	=123-	=123-	=123-	=123-
1E\	lo-	1B\	.	2A/	lo-	2.e\	eſt
.	.	.	.	2G/	-cu-	.	.
.	.	.	.	.	.	4d\	.
2F\	-cu-	2.A/	per	4A/	-tus	4c/	.
.	.	.	.	4B/	.	4B/	.
2F\	-tus	.	.	4c\	.	1A/	per
.	.	4B\	.	4d\	.	.	.
=124-	=124-	=124-	=124-	=124-	=124-	=124-	=124-
2.E\	eſt	2c\	pro-	2e\	eſt	.	.
.	.	1B\	.	2e\	p(er)	2G/	pro-
4D/	p(er)	.	.	.	.	.	.
2C/	p(ro)-	.	.	2e\	p(ro-	1c\	-ph(e-
2AA/	-phe-	1A\	-phe-	2e\	-ph(et)-	.	.
=125-	=125-	=125-	=125-	=125-	=125-	=125-	=125-
1E\	-tas	.	.	1e\	-as	1B/	-ta)s
.	.	2G/	.	.	.	.	.
1AA/	.	1A\	-tas.	2c/	e(t)	2e\	Et
.	.	.	.	2c/	v-	2e\	v-
=126-	=126-	=126-	=126-	=126-	=126-	=126-	=126-
00r	.	00r	.	2c/	-na(m)	1e\	-na(m)
.	.	.	.	2B/	ſ(an)-	.	.
.	.	.	.	2A/	-ctam	2f\	ſ(an)-
.	.	.	.	1B/	Ca-	4e\	-ctam
.	.	.	.	.	.	4d\	.
=127-	=127-	=127-	=127-	=127-	=127-	=127-	=127-
.	.	.	.	.	.	2c/	Ca-
.	.	.	.	1A/	-tho-	2d\	-tho:
.	.	.	.	.	.	1B/	.
!	!	!	!	!LO:SIC:v:t=custos A	!	!	!
.	.	.	.	2G/	-li-	.	.
!	!	!	!	!LO:LB:g=original	!	!	!
=128-	=128-	=128-	=128-	=128-	=128-	=128-	=128-
2r	.	2r	.	1A/	-cam	2A/	.
!	!	!LO:SIC:v:t=custos c	!	!	!	!	!
2AA/	e(t)	2c\	e(t)	.	.	2e\	e(t)
!	!	!LO:PB:g=original	!	!	!	!	!
2AA/	a-	2c\	A-	1r	.	2e\	A-
!LO:SIC:v:t=custos E	!	!	!	!	!	!LO:SIC:v:t=custos e	!
2AA/	-po-	2A/	-po-	.	.	2e\	-po-
!LO:LB:g=original	!	!	!	!	!	!LO:LB:g=original	!
=129-	=129-	=129-	=129-	=129-	=129-	=129-	=129-
2E\	-ſto-	2B\	-ſto-	1G/	e(t)	2e\	-ſto-
2C/	-li-	2c\	-li-	.	.	2e\	-li-
2.D/	-cam	2A/	-ca(m)	2d\	A-	2d\	-ca(m)
.	.	1A\	Ec-	2d\	-po-	1f\	Ec-
4E\	.	.	.	.	.	.	.
=130-	=130-	=130-	=130-	=130-	=130-	=130-	=130-
2F\	Ec-	.	.	2c/	-ſto-	.	.
2C/	-cle-	2G/	-cl(e-	2c/	-li-	1e\	-cl(e-
1D\	-ſi-	1F/	-si)-	2.A/	-ca(m)	.	.
.	.	.	.	.	.	2d\	-si)-
.	.	.	.	4B/	ec-	.	.
=131-	=131-	=131-	=131-	=131-	=131-	=131-	=131-
1AA/	-am	0E/	-am	2c/	-cl(e-	0e\	-am
.	.	.	.	2c/	-si)-	.	.
1E\	.	.	.	1B/	-am	.	.
=132-	=132-	=132-	=132-	=132-	=132-	=132-	=132-
1E\	Con-	1G/	Con-	1B/	Con-	1e\	Con-
2.D/	-fi-	2.A/	-fi-	2.d\	-fi-	2.f\	-fi-
4D/	-te-	4A/	-te-	4d\	-te-	4f\	-te-
=133-	=133-	=133-	=133-	=133-	=133-	=133-	=133-
2E\	 or	2G/	-or	2B/	 or	2e\	 or
2C/	v-	2E/	v-	2c/	v-	2e\	v-
2D/	-num	2F/	-nu(m)	2A/	-nu(m)	2d\	-nu(m)
2BB/	bap-	2G/	bap-	2d\	bap-	1g\	bap-
=134-	=134-	=134-	=134-	=134-	=134-	=134-	=134-
2C/	-tiſ-	1A\	-tiſ-	2c/	-tiſ-	.	.
2D/	-ma	.	.	2A/	.	2f\	-tiſ-
!	!	!	!	!LO:SIC:v:t=custos c	!	!	!
2E\	.	2G/	-ma	0e\	-ma.	2g\	-ma
1C/	in	1c\	in	.	.	1g\	in
=135-	=135-	=135-	=135-	=135-	=135-	=135-	=135-
!LO:SIC:v:t=custos F	!	!	!	!	!	!	!
2C/	re-	2c\	re-	.	.	2g\	re-
!LO:LB:g=original	!	!	!	!	!	!	!
2.F\	-miſ-	2.c\	-miſ-	1r	.	2.f\	-miſ-
!	!	!LO:SIC:v:t=custos c	!	!	!	!LO:SIC:v:t=custos f	!
4F\	-si-	4c\	-si-	.	.	4f\	-si-
!	!	!LO:LB:g=original	!	!LO:PB:g=original	!	!LO:LB:g=original	!
=136-	=136-	=136-	=136-	=136-	=136-	=136-	=136-
2F\	-o-	2c\	-o-	0r	.	2f\	-o-
2C/	-nem	2c\	-nem	.	.	2e\	-ne(m)
2D/	pec-	4B\	p(ec)-	.	.	4d\	pec-
.	.	4A\	.	.	.	4c\	.
2F\	-ca-	1A\	-c(a)-	.	.	4B/	-ca-
.	.	.	.	.	.	4A/	.
=137-	=137-	=137-	=137-	=137-	=137-	=137-	=137-
1E\	-to-	.	.	2r	.	1B/	-to-
.	.	2G/	-to-	1e\	e(t)	.	.
2AA/	-ru(m)	1A\	-ru(m)	.	.	2A/	-ru(m)
1AA/	e(t)	.	.	2e\	ex-	2c/	Et
=138-	=138-	=138-	=138-	=138-	=138-	=138-	=138-
.	.	1E/	e(t)	1e\	-pec-	2c/	ex-
2AA/	ex-	.	.	.	.	2A/	-pec-
*	*	*lig	*	*	*	*	*
1E\	-pec-	1G/	ex-	1e\	-to	2B/	-to
.	.	.	.	.	.	2c/	re-
=139-	=139-	=139-	=139-	=139-	=139-	=139-	=139-
2D/	-to	1A\	.	1r	.	2d\	-ſur-
2C/	.	.	.	.	.	2e\	-re-
*	*	*Xlig	*	*	*	*	*
2.F\	.	1A\	-pec-	2r	.	1.f\	-cti-
.	.	.	.	2c/	re-	.	.
4E\	.	.	.	.	.	.	.
=140-	=140-	=140-	=140-	=140-	=140-	=140-	=140-
2D/	.	1A\	-to	2d\	-ſur-	.	.
2AA/	.	.	.	2e\	-rec-	2e\	-o-
1r	.	2r	.	2f\	-ti-	2d\	-nem
.	.	2G/	re-	2g\	-o-	4r	.
*	*	*	*	*	*	*	*ij
.	.	.	.	.	.	2c/	re-
=141-	=141-	=141-	=141-	=141-	=141-	=141-	=141-
2r	.	2A/	-ſur-	2f\	-nem	.	.
.	.	.	.	.	.	2d\	-ſur-
2GG/	re-	2B\	-rec-	2r	.	.	.
.	.	.	.	.	.	2e\	-re-
2AA/	-ſur-	2c\	-ti-	2c/	mor-	.	.
.	.	.	.	.	.	4f\	-cti-
!LO:SIC:v:t=custos C	!	!	!	!	!	!LO:SIC:v:t=custos e	!
2BB/	-re-	2d\	-o-	2B/	-tu-	2d\	-o-
!LO:PB:g=original	!	!	!	!	!	!LO:PB:g=original	!
=142-	=142-	=142-	=142-	=142-	=142-	=142-	=142-
2C/	-cti-	2c\	-nem	1A/	-o-	2e\	-nem
2D/	-o-	2A/	mor-	.	.	4d\	mor-
.	.	.	.	.	.	4c/	.
1GG/	-nem	2.B\	.	2G/	-rum	4B/	.
.	.	.	.	.	.	4A/	.
.	.	.	.	2d\	.	1G/	-tu-
.	.	4c\	-tu-	.	.	.	.
=143-	=143-	=143-	=143-	=143-	=143-	=143-	=143-
!	!	!LO:SIC:v:t=custos G	!	!	!	!	!
2.D/	mor-	1A\	-o-	2.d\	.	.	.
.	.	.	.	.	.	2F/	-o-
4C/	.	.	.	4d\	.	.	.
!	!	!LO:LB:g=original	!	!	!	!	!
2BB/	-tu-	1G/	-rum	2d\	.	1G/	-rum
2C/	-o-	.	.	2G/	e(t)	.	.
=144-	=144-	=144-	=144-	=144-	=144-	=144-	=144-
!	!	!	!	!LO:SIC:v:t=custos B	!	!	!
1AA/	-ru(m)	1C/	e(t)	1A/	Vi-	1r	.
!	!	!	!	!LO:PB:g=original	!	!	!
1GG/	.	1D/	vi-	1B/	-tam	2r	.
.	.	.	.	.	.	2G/	Et
=145-	=145-	=145-	=145-	=145-	=145-	=145-	=145-
1FF/	e(t)	2F/	-ta(m)	2.c/	.	1A/	vi-
.	.	1F/	ven-	.	.	.	.
.	.	.	.	4B/	Ven-	.	.
2FF/	vi-	.	.	4c/	.	2c/	-ta(m)
.	.	.	.	4d\	.	.	.
2C/	-tam	2G/	-tu-	1e\	-tu-	1c\	Ven-
=146-	=146-	=146-	=146-	=146-	=146-	=146-	=146-
2AA/	.	2A/	-ri	.	.	.	.
2D/	ven-	2F/	ſe-	2A/	-ri	2.f\	-tu-
2C/	-tu-	2G/	-cu-	1c\	.	.	.
.	.	.	.	.	.	4e\	-ri
2AA/	-ri	2A/	-li	.	.	1e\	ſ(ae)-
=147-	=147-	=147-	=147-	=147-	=147-	=147-	=147-
1D\	ſe-	1F/	A-	2.A/	ſe-	.	.
.	.	.	.	.	.	2d\	-c(u)-
.	.	.	.	4B/	.	.	.
!	!	!LO:N:vis=0	!	!	!	!	!
2.C/	-cu-	[y0.E/;	-men	2c/	-cu-	1e\	-li
.	.	.	.	2G/	-li	.	.
4BB/	-li	.	.	.	.	.	.
=148-	=148-	=148-	=148-	=148-	=148-	=148-	=148-
2AA/	.	.	.	2A/	.	0e\	A-
2GG/	A-	.	.	2B/	A-	.	.
1AA/	-men	.	.	1c\	-men	.	.
=149-	=149-	=149-	=149-	=149-	=149-	=149-	=149-
0E\;	.	0Eyy]	.	0B/;	.	0e\;	-men.
==	==	==	==	==	==	==	==
*-	*-	*-	*-	*-	*-	*-	*-
!!!system-decoration: [(s1,s2,s3,s4)]
!!!RDF**kern: l = terminal long
!!!ENC: Mateusz Solarz
!!!END: 2022-02-16
!!!AIN: 3 empty 1 tenor
!!!ENC: Leszek Kubiak
!!!END: 2022-02-23
